icons/clojure-dark.svg

<svg xmlns="http://www.w3.org/2000/svg" width="256" height="256" fill="none" viewBox="0 0 256 256"><rect width="256" height="256" fill="#282828" rx="60"/><g clip-path="url(#clip0_101_267)"><path fill="#282828" d="M127.999 28C72.8617 28 28 72.8617 28 128.001C28 183.145 72.8617 228.004 127.999 228.004C183.138 228.004 228 183.145 228 128.001C228 72.8617 183.138 28 127.999 28Z"/><path fill="#91DC47" d="M124.342 129.799C123.444 131.746 122.452 133.934 121.426 136.262C117.797 144.484 113.778 154.488 112.31 160.898C111.783 163.18 111.456 166.009 111.462 169.146C111.462 170.387 111.529 171.691 111.634 173.019C116.765 174.904 122.306 175.941 128.093 175.951C133.361 175.941 138.422 175.07 143.159 173.495C142.045 172.477 140.983 171.392 140.016 170.17C133.594 161.98 130.011 149.979 124.342 129.799"/><path fill="#91DC47" d="M100.633 89.1133C88.368 97.757 80.3422 112.013 80.3118 128.17C80.3422 144.084 88.1266 158.156 100.083 166.836C103.016 154.62 110.367 143.434 121.391 121.012C120.737 119.213 119.991 117.245 119.156 115.177C116.102 107.516 111.694 98.6188 107.76 94.5898C105.755 92.4852 103.321 90.6664 100.633 89.1133"/><path fill="#63B132" d="M169.714 182.974C163.386 182.181 158.163 181.224 153.595 179.613C145.91 183.428 137.256 185.584 128.093 185.584C96.3867 185.584 70.6844 159.885 70.6805 128.17C70.6805 110.961 78.2617 95.5344 90.2555 85.0133C87.0477 84.2383 83.7024 83.7859 80.2852 83.7922C63.4399 83.9508 45.6578 93.2734 38.2547 118.451C37.5625 122.116 37.7274 124.887 37.7274 128.171C37.7274 178.081 78.1891 218.543 128.095 218.543C158.659 218.543 185.659 203.356 202.01 180.13C193.166 182.334 184.662 183.388 177.379 183.41C174.649 183.41 172.087 183.264 169.714 182.974"/><path fill="#90B4FE" d="M152.733 165.463C153.291 165.74 154.555 166.191 156.316 166.691C168.157 157.998 175.852 143.995 175.883 128.17H175.878C175.834 101.786 154.483 80.4383 128.093 80.3859C122.848 80.3961 117.809 81.2617 113.091 82.825C122.793 93.8844 127.459 109.689 131.972 126.977C131.974 126.985 131.978 126.991 131.98 126.998C131.988 127.012 133.423 131.798 135.887 138.149C138.334 144.491 141.82 152.343 145.622 158.065C148.118 161.899 150.863 164.655 152.733 165.463"/><path fill="#5881D8" d="M128.095 37.7977C97.8266 37.7977 71.0516 52.6984 54.6516 75.5461C63.1868 70.2008 71.9016 68.2727 79.5071 68.3414C90.0118 68.3719 98.2704 71.6289 102.233 73.857C103.19 74.4086 104.098 75.0023 104.988 75.6125C112.059 72.4984 119.871 70.757 128.093 70.757C159.803 70.7609 185.509 96.4594 185.514 128.17H185.509C185.509 144.157 178.97 158.612 168.429 169.022C171.016 169.312 173.776 169.492 176.594 169.478C186.602 169.483 197.42 167.274 205.531 160.453C210.819 155.998 215.249 149.476 217.706 139.696C218.187 135.919 218.463 132.079 218.463 128.171C218.463 78.2633 178.006 37.7977 128.095 37.7977"/></g><defs><clipPath id="clip0_101_267"><rect width="200" height="200" fill="#fff" transform="translate(28 28)"/></clipPath></defs></svg>

<svg xmlns="http://www.w3.org/2000/svg" width="256" height="256" fill="none"><rect width="256" height="256" fill="#282828" rx="60"/><g clip-path="url(#clip0_101_267)"><path fill="#282828" d="M127.999 28C72.862 28 28 72.862 28 128.001c0 55.144 44.862 100.003 99.999 100.003 55.139 0 100.001-44.859 100.001-100.003C228 72.861 183.138 28 127.999 28"/><path fill="#91DC47" d="M124.342 129.799a418 418 0 0 0-2.916 6.463c-3.629 8.222-7.648 18.226-9.116 24.636-.527 2.282-.854 5.111-.848 8.248 0 1.241.067 2.545.172 3.873a47.9 47.9 0 0 0 16.459 2.932 48 48 0 0 0 15.066-2.456c-1.114-1.018-2.176-2.103-3.143-3.325-6.422-8.19-10.005-20.191-15.674-40.371m-23.709-40.686c-12.265 8.644-20.29 22.9-20.321 39.057.03 15.914 7.815 29.986 19.771 38.666 2.933-12.216 10.284-23.402 21.308-45.824-.654-1.799-1.4-3.767-2.235-5.835-3.054-7.661-7.462-16.558-11.396-20.587-2.005-2.105-4.439-3.924-7.127-5.477"/><path fill="#63B132" d="M169.714 182.974c-6.328-.793-11.551-1.75-16.119-3.361a57.2 57.2 0 0 1-25.502 5.971c-31.706 0-57.409-25.699-57.412-57.414 0-17.209 7.58-32.636 19.575-43.157-3.208-.775-6.554-1.227-9.97-1.22-16.846.158-34.628 9.48-42.031 34.658-.693 3.665-.528 6.436-.528 9.72 0 49.91 40.462 90.372 90.368 90.372 30.564 0 57.564-15.187 73.915-38.413-8.844 2.204-17.348 3.258-24.631 3.28-2.73 0-5.292-.146-7.665-.436"/><path fill="#90B4FE" d="M152.733 165.463c.558.277 1.822.728 3.583 1.228 11.841-8.693 19.536-22.696 19.567-38.521h-.005c-.044-26.384-21.395-47.732-47.785-47.784a47.9 47.9 0 0 0-15.002 2.439c9.702 11.06 14.368 26.864 18.881 44.152l.008.021c.008.014 1.443 4.8 3.907 11.151 2.447 6.342 5.933 14.194 9.735 19.916 2.496 3.834 5.241 6.59 7.111 7.398"/><path fill="#5881D8" d="M128.095 37.798c-30.268 0-57.043 14.9-73.443 37.748 8.535-5.345 17.25-7.273 24.855-7.205 10.505.03 18.763 3.288 22.726 5.516a42 42 0 0 1 2.755 1.755 57.2 57.2 0 0 1 23.105-4.855c31.71.004 57.416 25.702 57.421 57.413h-.005c0 15.987-6.539 30.442-17.08 40.852 2.587.29 5.347.47 8.165.456 10.008.005 20.826-2.204 28.937-9.025 5.288-4.455 9.718-10.977 12.175-20.757.481-3.777.757-7.617.757-11.525 0-49.908-40.457-90.373-90.368-90.373"/></g><defs><clipPath id="clip0_101_267"><path fill="#fff" d="M28 28h200v200H28z"/></clipPath></defs></svg>
